X:1
T:Polska
T:efter Alfred Petersson, Nttraby, Blekinge (SvL, Band 18, nr 302)
O:Nttraby, Blekinge
S:Svenska Ltar
N:Svenska Ltar, Band 18 nr 302
R:Polska
C:Alfred Petersson
M:3/4
L:1/16
Q:1/4=80
Z:Konverterad till abc-format av  Olle Paulsson 05-01-03
K:A
A2Bc defg a4|d3c (ed)Bd c2A2|(cA)Bc (de)fg a4|g2e2 (eg)bg a4:|
.A.e.c.e .A.e.c.e .A.e.c.e|.B.e.d.e .B.e.d.e .B.e.d.e|.E.B.G.B .E.B.G.B .E.B.G.B|
.A.e.c.e .A.e.c.e A4|(cA).B.c (de).f.g a4|g2e2 (eg)bg a4:|
